Numix-GalliumOS/16/categories/preferences-system-network-proxy.svg

<?xml version="1.0" encoding="UTF-8" standalone="no"?>
<svg
   xmlns:dc="http://purl.org/dc/elements/1.1/"
   xmlns:cc="http://creativecommons.org/ns#"
   xmlns:rdf="http://www.w3.org/1999/02/22-rdf-syntax-ns#"
   xmlns:svg="http://www.w3.org/2000/svg"
   xmlns="http://www.w3.org/2000/svg"
   xmlns:sodipodi="http://sodipodi.sourceforge.net/DTD/sodipodi-0.dtd"
   xmlns:inkscape="http://www.inkscape.org/namespaces/inkscape"
   width="16"
   height="16"
   viewBox="0 0 16 16"
   id="svg2"
   version="1.1"
   inkscape:version="0.91 r"
   sodipodi:docname="preferences-system-network-proxy.svg">
  <metadata
     id="metadata28">
    <rdf:RDF>
      <cc:Work
         rdf:about="">
        <dc:format>image/svg+xml</dc:format>
        <dc:type
           rdf:resource="http://purl.org/dc/dcmitype/StillImage" />
        <dc:title />
      </cc:Work>
    </rdf:RDF>
  </metadata>
  <defs
     id="defs26" />
  <sodipodi:namedview
     pagecolor="#ffffff"
     bordercolor="#666666"
     borderopacity="1"
     objecttolerance="10"
     gridtolerance="10"
     guidetolerance="10"
     inkscape:pageopacity="0"
     inkscape:pageshadow="2"
     inkscape:window-width="1920"
     inkscape:window-height="1056"
     id="namedview24"
     showgrid="true"
     inkscape:zoom="29.5"
     inkscape:cx="5.245452"
     inkscape:cy="3.2217525"
     inkscape:window-x="0"
     inkscape:window-y="24"
     inkscape:window-maximized="1"
     inkscape:current-layer="svg2">
    <inkscape:grid
       type="xygrid"
       id="grid4156" />
  </sodipodi:namedview>
  <path
     style="fill:#e78684;fill-opacity:1"
     d="M 8.0000251,1.75 C 6.987312,1.75 6.03345,1.9983595 5.1865486,2.4277345 3.151433,3.4595273 1.7500251,5.5664375 1.7500251,8 c 0,2.43713 1.4053463,4.547019 3.4453124,5.577148 7e-4,0.0016 0.00125,0.0033 0.00195,0.0049 l 0.0039,-0.002 C 6.0444445,14.004785 6.993206,14.25 8.0000251,14.25 c 1.0068199,0 1.9555808,-0.245215 2.7988279,-0.669922 l 0.0039,0.0019 c 7e-4,-0.0016 0.0012,-0.0033 0.0019,-0.0049 2.039976,-1.030109 3.445322,-3.139998 3.445322,-5.577128 0,-2.4335625 -1.401408,-4.5404726 -3.436523,-5.5722655 C 9.9665999,1.9983595 9.012738,1.75 8.0000251,1.75 Z M 7.4990485,2.7753905 7.4990485,5 5.4883065,5 C 5.6198475,4.3756392 5.78826,3.7587142 5.993189,3.1552734 6.4648516,2.9597605 6.9685155,2.8253085 7.4990485,2.7753905 Z m 1.0000004,0 c 0.530823,0.049845 1.035002,0.184242 1.5068361,0.3798829 C 10.210534,3.7587756 10.379408,4.3755678 10.510768,5 l -2.0117191,0 0,-2.2246095 z M 4.7168219,3.9130859 C 4.6204695,4.2725052 4.5366002,4.6352861 4.4638922,5 L 3.6933845,5 C 3.9799307,4.5892551 4.3276352,4.2264987 4.7168219,3.9130859 Z m 6.5664061,0.00196 C 11.671509,4.2281075 12.018716,4.5899886 12.304713,5 L 11.535182,5 C 11.462706,4.6359323 11.379231,4.2738341 11.283228,3.915039 Z M 6.5654545,5.5 9.432643,5.5 c 0.03664,0 0.06641,0.031398 0.06641,0.070312 l 0,0.4296875 1.191406,0 c 0.07239,0.499599 0.120849,1.00037 0.144531,1.5 l -1.3359369,0 0,1 1.3476559,0 c -0.0099,0.505617 -0.0443,1.0071205 -0.107422,1.5 l -1.2402339,0 0,0.4296875 c 0,0.03891 -0.02977,0.07031 -0.06641,0.07031 l -2.8671884,0 c -0.03664,0 -0.066406,-0.0314 -0.066406,-0.07031 l 0,-0.4296875 -1.2402345,0 C 5.195609,9.507147 5.161328,9.0055885 5.1513925,8.5 l 1.347656,0 0,-1 -1.334961,0 C 5.1878225,7.000694 5.2351885,6.499274 5.3076425,6 l 1.191406,0 0,-0.4296875 c 0,-0.038914 0.029766,-0.070312 0.066406,-0.070312 z M 3.1455329,6 4.2939704,6 C 4.2251957,6.499375 4.1798316,6.9997915 4.1572516,7.5 l -1.3828124,0 C 2.8248703,6.973101 2.9522843,6.4696905 3.1455329,6 Z m 8.5595701,0 1.147461,0 c 0.193226,0.469732 0.320656,0.9730985 0.371094,1.5 l -1.381836,0 C 11.819272,6.999816 11.77378,6.4993515 11.705103,6 Z m -8.9316404,2.5 1.3720704,0 c 0.00933,0.504124 0.04294,1.005019 0.1025389,1.5 L 3.147486,10 C 2.9540786,9.529994 2.8230549,9.0277315 2.7734625,8.5 Z m 9.0791014,0 1.372071,0 c -0.04959,0.5277955 -0.18064,1.0299485 -0.374024,1.5 l -1.100586,0 c 0.05951,-0.494979 0.09323,-0.9958785 0.102539,-1.5 z M 3.6904548,11 4.4033455,11 c 0.068369,0.350266 0.153091,0.695483 0.2490233,1.036133 C 4.2884477,11.734046 3.9614863,11.38897 3.6904547,11 Z m 1.7392578,0 2.069336,0 0,2.224609 C 6.9625186,13.174127 6.4530895,13.037868 5.9765875,12.838867 5.7449005,12.25099 5.5630085,11.635381 5.4297125,11 Z m 3.0693364,0 2.070312,0 c -0.133122,0.635546 -0.314477,1.250851 -0.545898,1.838867 -0.476899,0.199125 -0.987344,0.335312 -1.524414,0.385742 l 0,-2.224609 z m 3.096679,0 0.712891,0 c -0.270794,0.388888 -0.597284,0.734165 -0.960937,1.036133 C 11.443465,11.695526 11.527466,11.350219 11.595728,11 Z"
     id="path6"
     inkscape:connector-curvature="0" />
  <g
     style="fill:none;stroke:#52c8ff;stroke-width:2.01698375;stroke-miterlimit:4;stroke-dasharray:none"
     id="g14"
     transform="matrix(0.99157968,0,0,0.99157968,0.30128272,-15.698722)">
    <g
       style="stroke-width:2.01698375;stroke-miterlimit:4;stroke-dasharray:none"
       id="g16" />
  </g>
  <rect
     style="opacity:1;fill:none;fill-opacity:1;fill-rule:nonzero;stroke:#e78684;stroke-width:0.99999994;stroke-linecap:round;stroke-linejoin:miter;stroke-miterlimit:4;stroke-dasharray:none;stroke-dashoffset:0;stroke-opacity:1"
     id="rect4187"
     width="4"
     height="6"
     x="5.9990487"
     y="5"
     rx="0.08818344"
     ry="0.084290728" />
  <circle
     style="opacity:1;fill:#e78684;fill-opacity:1;fill-rule:nonzero;stroke:none;stroke-width:2;stroke-linecap:round;stroke-linejoin:miter;stroke-miterlimit:4;stroke-dasharray:none;stroke-dashoffset:0;stroke-opacity:1"
     id="path4217"
     cx="8.4990482"
     cy="8"
     r="0.5" />
</svg>

<svg xmlns="http://www.w3.org/2000/svg" viewBox="0 0 16 16">
 <path d="m 8 1.75 c -1.013 0 -1.967 0.248 -2.813 0.678 -2.035 1.032 -3.437 3.139 -3.437 5.572 c 0 2.437 1.405 4.547 3.445 5.577 0.001 0.002 0.001 0.003 0.002 0.005 l 0.004 -0.002 c 0.843 0.425 1.792 0.67 2.799 0.67 c 1.01 0 1.956 -0.245 2.799 -0.67 l 0.004 0.002 c 0.001 -0.002 0.001 -0.003 0.002 -0.005 2.04 -1.03 3.445 -3.14 3.445 -5.577 0 -2.434 -1.401 -4.54 -3.437 -5.572 c -0.847 -0.429 -1.801 -0.678 -2.813 -0.678 m -0.501 1.025 0 2.225 -2.01 0 c 0.132 -0.624 0.3 -1.241 0.505 -1.845 0.472 -0.196 0.975 -0.33 1.506 -0.38 m 1 0 c 0.531 0.05 1.035 0.184 1.507 0.38 c 0.205 0.604 0.374 1.22 0.505 1.845 l -2.01 0 0 -2.225 z m -3.782 1.138 c -0.096 0.359 -0.18 0.722 -0.253 1.087 l -0.771 0 c 0.287 -0.411 0.634 -0.774 1.023 -1.087 m 6.566 0.002 c 0.388 0.313 0.735 0.675 1.021 1.085 l -0.77 0 c -0.072 -0.364 -0.156 -0.726 -0.252 -1.085 m -4.718 1.585 2.867 0 c 0.037 0 0.066 0.031 0.066 0.07 l 0 0.43 1.191 0 c 0.072 0.5 0.121 1 0.145 1.5 l -1.336 0 0 1 1.348 0 c -0.01 0.506 -0.044 1.01 -0.107 1.5 l -1.24 0 0 0.43 c 0 0.039 -0.03 0.07 -0.066 0.07 l -2.867 0 c -0.037 0 -0.066 -0.031 -0.066 -0.07 l 0 -0.43 -1.24 0 c -0.063 -0.493 -0.097 -0.994 -0.107 -1.5 l 1.348 0 0 -1 -1.335 0 c 0.024 -0.499 0.071 -1 0.144 -1.5 l 1.191 0 0 -0.43 c 0 -0.039 0.03 -0.07 0.066 -0.07 z m -3.42 0.5 1.148 0 c -0.069 0.499 -0.114 1 -0.137 1.5 l -1.383 0 c 0.05 -0.527 0.178 -1.03 0.371 -1.5 m 8.56 0 1.147 0 c 0.193 0.47 0.321 0.973 0.371 1.5 l -1.382 0 c -0.023 -0.5 -0.068 -1 -0.137 -1.5 m -8.932 2.5 1.372 0 c 0.009 0.504 0.043 1.01 0.103 1.5 l -1.101 0 c -0.193 -0.47 -0.324 -0.972 -0.374 -1.5 m 9.08 0 1.372 0 c -0.05 0.528 -0.181 1.03 -0.374 1.5 l -1.101 0 c 0.06 -0.495 0.093 -0.996 0.103 -1.5 z m -8.162 2.5 0.713 0 c 0.068 0.35 0.153 0.695 0.249 1.036 c -0.364 -0.302 -0.691 -0.647 -0.962 -1.036 m 1.739 0 2.069 0 0 2.225 c -0.537 -0.05 -1.046 -0.187 -1.522 -0.386 -0.232 -0.588 -0.414 -1.203 -0.547 -1.839 m 3.069 0 2.07 0 c -0.133 0.636 -0.314 1.251 -0.546 1.839 -0.477 0.199 -0.987 0.335 -1.524 0.386 l 0 -2.225 z m 3.097 0 0.713 0 c -0.271 0.389 -0.597 0.734 -0.961 1.036 c 0.096 -0.341 0.18 -0.686 0.248 -1.036" style="fill:#e78684;fill-opacity:1"/>
 <rect width="4" height="6" x="5.999" y="5" rx="0.088" ry="0.084" style="stroke-dasharray:none;stroke-opacity:1;fill:none;opacity:1;stroke-miterlimit:4;fill-opacity:1;stroke:#e78684;fill-rule:nonzero;stroke-linecap:round;stroke-linejoin:miter;stroke-width:1;stroke-dashoffset:0"/>
 <circle cx="8.499" cy="8" r="0.5" style="fill:#e78684;opacity:1;fill-opacity:1;stroke:none;fill-rule:nonzero"/>
</svg>
